public/images/broadcasters/trt.svg

<svg enable-background="new 0 0 85 30" viewBox="0 0 85 30" xmlns="http://www.w3.org/2000/svg"><path d="m51.8 20.4c2.9-1.8 4.8-5.5 4.8-9.3-.1-7.6-6.2-11.1-12-11.1h-14c-.7 0-1.3.6-1.3 1.3v28.7h4.9c.7 0 1.4-.3 1.9-.8s.8-1.2.8-1.9v-5.1h6.8l5.4 7.8h8.1l-6.4-9zm-7.1-5h-7.9v-8.6h7.9c1.2 0 2.3.4 3.1 1.2s1.3 1.9 1.2 3.1c0 1.1-.4 2.3-1.3 3.1-.7.7-1.8 1.2-3 1.2zm13.3-14.1v5.5h9.7v23.2h4.9c1.5 0 2.6-1.2 2.6-2.6v-20.6h7.5c1.2 0 2.2-1 2.2-2.2v-4.6h-25.5c-.8 0-1.4.6-1.4 1.3zm-58 0v5.5h9.7v23.2h4.9c1.5 0 2.6-1.2 2.7-2.6v-20.6h7.5c1.2 0 2.2-1 2.2-2.2v-4.6h-25.7c-.7 0-1.3.6-1.3 1.3z" fill="#e4032c"/></svg>

<?xml version="1.0" encoding="UTF-8"?>
<!-- Generator: Adobe Illustrator 23.1.0, SVG Export Plug-In . SVG Version: 6.00 Build 0)  -->
<svg version="1.1" id="Layer_1" xmlns="http://www.w3.org/2000/svg" xmlns:xlink="http://www.w3.org/1999/xlink" x="0px" y="0px" viewBox="0 0 85 30" style="enable-background:new 0 0 85 30;" xml:space="preserve">
<style type="text/css">
	.st0{fill:#E4032C;}
</style>
<path class="st0" d="M51.8,20.4c2.9-1.8,4.8-5.5,4.8-9.3C56.5,3.5,50.4,0,44.6,0h-14c-0.7,0-1.3,0.6-1.3,1.3V30h4.9  c0.7,0,1.4-0.3,1.9-0.8c0.5-0.5,0.8-1.2,0.8-1.9v-5.1h6.8l5.4,7.8h8.1l-6.4-9L51.8,20.4z M44.7,15.4h-7.9V6.8h7.9  c1.2,0,2.3,0.4,3.1,1.2c0.8,0.8,1.3,1.9,1.2,3.1c0,1.1-0.4,2.3-1.3,3.1C47,14.9,45.9,15.4,44.7,15.4z M58,1.3v5.5h9.7V30h4.9  c1.5,0,2.6-1.2,2.6-2.6V6.8h7.5c1.2,0,2.2-1,2.2-2.2V0H59.4C58.6,0,58,0.6,58,1.3z M0,1.3v5.5h9.7V30h4.9c1.5,0,2.6-1.2,2.7-2.6V6.8  h7.5c1.2,0,2.2-1,2.2-2.2V0H1.3C0.6,0,0,0.6,0,1.3z"/>
</svg>
